public/assets/icons/timer_visible.svg

<svg width="512" height="512" viewBox="0 0 512 512" fill="none" xmlns="http://www.w3.org/2000/svg">
<path d="M407 106.62C386.739 90.4669 364.017 77.6708 339.7 68.7198L353 45.5998C354.327 43.3008 356.093 41.2857 358.199 39.6695C360.305 38.0534 362.708 36.8679 365.272 36.1807C367.836 35.4935 370.51 35.3181 373.142 35.6646C375.774 36.011 378.311 36.8725 380.61 38.1998L412.5 56.6098C414.799 57.9366 416.814 59.7033 418.43 61.809C420.046 63.9147 421.232 66.3181 421.919 68.882C422.606 71.4459 422.782 74.1201 422.435 76.7517C422.089 79.3834 421.227 81.9211 419.9 84.2198L407 106.62ZM471.61 296.42C471.58 415.29 374.87 512 256 512C137.13 512 40.42 415.29 40.42 296.42C40.42 177.55 137.13 80.8398 256 80.8398C374.87 80.8398 471.58 177.55 471.58 296.42H471.61ZM296.45 296.42C296.449 288.061 293.856 279.908 289.03 273.083C284.204 266.258 277.381 261.097 269.5 258.31V175.16C269.5 171.586 268.08 168.159 265.553 165.632C263.026 163.104 259.599 161.685 256.025 161.685C252.451 161.685 249.024 163.104 246.497 165.632C243.97 168.159 242.55 171.586 242.55 175.16V258.31C235.563 260.779 229.39 265.122 224.704 270.863C220.019 276.605 217.002 283.523 215.984 290.863C214.965 298.204 215.984 305.682 218.929 312.482C221.874 319.283 226.631 325.142 232.682 329.421C238.732 333.7 245.842 336.233 253.235 336.743C260.628 337.254 268.019 335.722 274.6 332.316C281.181 328.909 286.699 323.759 290.551 317.429C294.403 311.098 296.44 303.83 296.44 296.42H296.45ZM256 282.95C253.336 282.95 250.732 283.74 248.516 285.22C246.301 286.7 244.575 288.804 243.555 291.265C242.536 293.726 242.269 296.435 242.789 299.048C243.309 301.661 244.591 304.061 246.475 305.945C248.359 307.828 250.759 309.111 253.372 309.631C255.985 310.151 258.693 309.884 261.155 308.864C263.616 307.845 265.72 306.118 267.2 303.903C268.68 301.688 269.47 299.084 269.47 296.42C269.465 292.849 268.044 289.426 265.519 286.901C262.994 284.376 259.571 282.955 256 282.95ZM105 106.62C125.261 90.4669 147.983 77.6708 172.3 68.7198L159 45.5998C157.673 43.3008 155.907 41.2857 153.801 39.6695C151.695 38.0534 149.292 36.8679 146.728 36.1807C144.164 35.4935 141.49 35.3181 138.858 35.6646C136.226 36.011 133.689 36.8725 131.39 38.1998L99.5 56.6098C97.201 57.9366 95.1858 59.7033 93.5697 61.809C91.9535 63.9147 90.768 66.3181 90.0809 68.882C89.3937 71.4459 89.2183 74.1201 89.5648 76.7517C89.9112 79.3834 90.7727 81.9211 92.1 84.2198L105 106.62ZM309.86 59.9198V26.9198C309.839 19.7884 306.997 12.955 301.956 7.91133C296.914 2.8677 290.081 0.0235572 282.95 -0.000183105H229.05C221.906 0.0130334 215.059 2.85664 210.008 7.90789C204.957 12.9591 202.113 19.8063 202.1 26.9498V59.9498C237.582 51.9238 274.408 51.9238 309.89 59.9498L309.86 59.9198Z" fill="#1CD997"/>
</svg>

<svg xmlns="http://www.w3.org/2000/svg" width="512" height="512" fill="none"><path d="M407 106.62a242.13 242.13 0 0 0-67.3-37.9L353 45.6a20.21 20.21 0 0 1 5.199-5.93c2.106-1.616 4.509-2.802 7.073-3.489A20.21 20.21 0 0 1 380.61 38.2l31.89 18.41c2.299 1.327 4.314 3.093 5.93 5.199a20.21 20.21 0 0 1 3.489 7.073c.687 2.564.863 5.238.516 7.87s-1.208 5.169-2.535 7.468l-12.9 22.4zm64.61 189.8C471.58 415.29 374.87 512 256 512S40.42 415.29 40.42 296.42 137.13 80.84 256 80.84s215.58 96.71 215.58 215.58h.03zm-175.16 0a40.43 40.43 0 0 0-7.42-23.337c-4.826-6.825-11.649-11.986-19.53-14.773v-83.15c0-3.574-1.42-7.001-3.947-9.528a13.47 13.47 0 0 0-19.056 0c-2.527 2.527-3.947 5.954-3.947 9.528v83.15a40.42 40.42 0 0 0-26.566 32.553c-1.019 7.341 0 14.819 2.945 21.619s7.702 12.66 13.753 16.939a40.41 40.41 0 0 0 20.553 7.322 40.42 40.42 0 0 0 21.365-4.427 40.43 40.43 0 0 0 15.951-14.887 40.42 40.42 0 0 0 5.889-21.009h.01zM256 282.95c-2.664 0-5.268.79-7.484 2.27s-3.941 3.584-4.961 6.045-1.286 5.17-.766 7.783a13.47 13.47 0 0 0 3.686 6.897 13.48 13.48 0 0 0 6.897 3.686c2.613.52 5.321.253 7.783-.767a13.47 13.47 0 0 0 8.315-12.444A13.49 13.49 0 0 0 256 282.95zM105 106.62a242.13 242.13 0 0 1 67.3-37.9L159 45.6a20.21 20.21 0 0 0-5.199-5.93c-2.106-1.616-4.509-2.802-7.073-3.489A20.21 20.21 0 0 0 131.39 38.2L99.5 56.61a20.21 20.21 0 0 0-9.419 12.272A20.21 20.21 0 0 0 92.1 84.22l12.9 22.4zm204.86-46.7v-33c-.021-7.131-2.863-13.965-7.904-19.008A27 27 0 0 0 282.95 0h-53.9a27 27 0 0 0-26.95 26.95v33a244.28 244.28 0 0 1 107.79 0l-.03-.03z" fill="#1cd997"/></svg>
